front/src/Assets/image/header/Bell_light.svg

<svg width="29" height="29" viewBox="0 0 29 29" fill="none" xmlns="http://www.w3.org/2000/svg">
<path d="M8.03704 10.9849C8.40249 7.69591 11.1825 5.20764 14.4918 5.20764V5.20764C17.8011 5.20764 20.5811 7.69591 20.9466 10.9849L21.2393 13.6196C21.2742 13.9338 21.2917 14.0909 21.315 14.2457C21.4553 15.175 21.7582 16.0723 22.2098 16.8965C22.285 17.0338 22.3664 17.1693 22.529 17.4405L23.201 18.5605C23.9478 19.8051 24.3212 20.4275 24.0929 20.9108C24.0719 20.9553 24.0476 20.9982 24.0202 21.0391C23.7233 21.4836 22.9975 21.4836 21.546 21.4836H7.43761C5.98608 21.4836 5.26032 21.4836 4.96337 21.0391C4.93603 20.9982 4.91175 20.9553 4.89072 20.9108C4.66236 20.4275 5.03576 19.8051 5.78256 18.5605L6.45457 17.4405C6.61724 17.1693 6.69858 17.0338 6.77378 16.8965C7.22544 16.0723 7.52834 15.175 7.66858 14.2457C7.69193 14.0909 7.70938 13.9338 7.7443 13.6196L8.03704 10.9849Z" stroke="#666666"/>
<path d="M11.1229 21.9555C11.3216 22.8207 11.7595 23.5852 12.3686 24.1305C12.9777 24.6758 13.724 24.9713 14.4918 24.9713C15.2595 24.9713 16.0059 24.6758 16.615 24.1305C17.2241 23.5852 17.6619 22.8207 17.8607 21.9555" stroke="#666666" stroke-linecap="round"/>
</svg>

<svg xmlns="http://www.w3.org/2000/svg" fill="none" viewBox="0 0 29 29">
  <path stroke="#666" d="M8.037 10.985a6.494 6.494 0 016.455-5.777v0c3.31 0 6.09 2.488 6.455 5.777l.292 2.635c.035.314.053.47.076.626.14.929.443 1.826.895 2.65.075.138.156.273.319.544l.672 1.12c.747 1.245 1.12 1.867.892 2.35a.989.989 0 01-.073.13c-.297.444-1.023.444-2.474.444H7.438c-1.452 0-2.178 0-2.475-.445a.999.999 0 01-.072-.128c-.229-.484.145-1.106.892-2.35l.672-1.12c.162-.272.244-.407.319-.544a8 8 0 00.895-2.651c.023-.155.04-.312.075-.626l.293-2.635z"/>
  <path stroke="#666" stroke-linecap="round" d="M11.123 21.956c.199.865.636 1.63 1.246 2.175.609.545 1.355.84 2.123.84.767 0 1.514-.295 2.123-.84.61-.546 1.047-1.31 1.246-2.175"/>
</svg>
